src/lib/icons/thumb-up.svg

<!--{
  "category": "Action"
}-->
<svg width="15" height="16" viewBox="0 0 15 16" fill="none" xmlns="http://www.w3.org/2000/svg">
<path fill-rule="evenodd" clip-rule="evenodd" d="M13.1746 14.1722L14.8618 9.27218C15.1187 8.52429 15.0071 7.67787 14.564 7.01427C13.7547 5.80223 12.2522 5.63532 10.8606 5.59675C10.6709 5.59149 10.4833 5.58862 10.2997 5.58581C10.211 5.58445 10.1233 5.58311 10.0367 5.58152C9.97748 5.58043 9.91882 5.57923 9.8608 5.57782L9.86156 5.54641C9.87047 5.22086 9.91152 4.89739 9.98383 4.58026C10.0411 4.32926 10.1179 4.08222 10.2139 3.84125C10.6017 2.73516 10.5612 1.80051 10.0952 1.07601C9.70827 0.49276 9.04926 0.0905605 8.33272 0.000335693C8.02203 0.000335693 7.72877 0.0502697 7.46753 0.231958C7.22759 0.398834 7.0201 0.669946 6.97538 0.965404C6.95822 1.08438 6.94314 1.20466 6.92801 1.32539C6.864 1.83623 6.79896 2.35527 6.5702 2.81811L5.12315 5.73821C5.03738 5.92409 4.51095 6.11328 3.99539 6.26873L3.99526 5.99953C3.995 5.44743 3.54736 5.00001 2.99526 5.00001H1C0.447715 5.00001 0 5.44772 0 6.00001V15C0 15.5523 0.447715 16 1 16H2.99953C3.52905 16 3.96241 15.5884 3.99726 15.0678C4.26413 15.1679 4.52567 15.2937 4.78866 15.4203C5.38535 15.7073 5.98949 15.998 6.68018 16H10.5322C11.6905 16.0017 12.7949 15.2818 13.1746 14.1722ZM8.86102 5.55682L8.84008 6.55342L9.83662 6.57753C9.9994 6.58147 10.1596 6.58405 10.3174 6.5866C11.003 6.59766 11.6426 6.60798 12.245 6.72528C12.953 6.86314 13.4325 7.12045 13.7323 7.56956C14.0039 7.97626 14.0705 8.49729 13.9162 8.94682L12.229 13.8466L12.2284 13.8484C11.9992 14.5184 11.3017 15.0011 10.5337 15H6.68174C6.26202 14.9984 5.86359 14.8276 5.24868 14.5319L5.16797 14.4929C4.8475 14.3381 4.45123 14.1467 4.0005 14.0155V7.30925C4.13952 7.26947 4.28925 7.22553 4.4374 7.179C4.68238 7.10206 4.95786 7.00742 5.19514 6.89793C5.31287 6.84361 5.45017 6.77256 5.57892 6.68161C5.68392 6.60742 5.89175 6.44627 6.02248 6.17554L7.46622 3.26214L7.46669 3.26119C7.77938 2.62852 7.86836 1.8928 7.92991 1.38378C7.94098 1.29231 7.95115 1.20816 7.96158 1.13325C7.96326 1.13038 7.96562 1.12661 7.96884 1.12198C7.97651 1.11097 7.98705 1.09817 8.00022 1.08509C8.0134 1.072 8.02675 1.0611 8.03851 1.05292C8.06205 1.03655 8.11235 1.00771 8.26909 1.00152C8.68017 1.07078 9.04741 1.30942 9.258 1.62296C9.49785 2.00044 9.59223 2.58079 9.27647 3.4924C9.01666 4.15187 8.87587 4.85009 8.86102 5.55682ZM2.99953 15H1V6.00001L2.99526 6.00001L2.99953 15Z" fill="#7A859E"/>
</svg>

<!--{
  "category": "Action"
}-->
<svg xmlns="http://www.w3.org/2000/svg" width="15" height="16" fill="none"><path fill="#7A859E" fill-rule="evenodd" d="m13.175 14.172 1.687-4.9a2.585 2.585 0 0 0-.298-2.258c-.81-1.212-2.312-1.379-3.703-1.417-.19-.006-.378-.008-.561-.011l-.263-.004-.176-.004v-.032a4.955 4.955 0 0 1 .353-1.705c.388-1.106.347-2.04-.119-2.765A2.51 2.51 0 0 0 8.333 0c-.311 0-.604.05-.865.232-.24.167-.448.438-.493.733-.017.12-.032.24-.047.36-.064.511-.129 1.03-.358 1.493l-1.447 2.92c-.086.186-.612.375-1.128.53V6a1 1 0 0 0-1-1H1a1 1 0 0 0-1 1v9a1 1 0 0 0 1 1h2a1 1 0 0 0 .997-.932c.267.1.529.226.792.352.596.287 1.2.578 1.891.58h3.852c1.159.002 2.263-.718 2.643-1.828ZM8.86 5.557l-.02.996.996.025.48.009c.686.01 1.326.021 1.928.138.708.138 1.188.395 1.487.845.272.406.338.927.184 1.377l-1.687 4.9v.001c-.23.67-.927 1.153-1.695 1.152H6.682c-.42-.002-.818-.172-1.433-.468l-.081-.04c-.32-.154-.717-.345-1.168-.477V7.31c.14-.04.29-.083.437-.13.245-.077.52-.172.758-.281.118-.054.255-.125.384-.216.105-.075.313-.236.443-.506l1.444-2.914c.313-.633.402-1.37.464-1.878.011-.092.021-.176.032-.25a.273.273 0 0 1 .077-.08c.023-.017.073-.046.23-.052.411.069.778.307.989.621.24.377.334.958.018 1.87-.26.659-.4 1.357-.415 2.064ZM3 15H1V6h1.995L3 15Z" clip-rule="evenodd"/></svg>
